; generated by QIDISlicer 1.1.5 on 2024-09-04 at 08:09:13 UTC


;
;

;
;
; 

; external perimeters extrusion width = 0.42mm
; perimeters extrusion width = 0.45mm
; infill extrusion width = 0.45mm
; solid infill extrusion width = 0.42mm
; top infill extrusion width = 0.42mm
; first layer extrusion width = 0.50mm

;TYPE:Custom
EXCLUDE_OBJECT_DEFINE NAME=X_STL CENTER=122.500,122.500 POLYGON=[[142.000,142.500],[103.000,142.500],[103.000,102.500],[142.000,102.500]]
M73 P0 R59
PRINT_START BED=80 HOTEND=240 CHAMBER=0
M83
M140 S80
M104 S240
G4 P3000



G0 X98 Y97.5 Z5 F6000
G0 Z0.2 F600
G1 E3 F1800
G1 X183 E3.4 F3000
G1 Y99.5 E0.08
G1 X98 E3.4
G1 Y182.5 E3.32
G1 X100 E0.08
G1 Y100.5 E3.28
G1 X101 Z0
G1 X104
G1 Z1 F600
G21 ; set units to millimeters
G90 ; use absolute coordinates
M83 ; use relative distances for extrusion
; Filament gcode
M900 K0.04 T0.03
M107
M106 P2 S0
M106 P3 S255
;LAYER_CHANGE
;Z:0.2
;HEIGHT:0.2
G1 E-.8 F1800
EXCLUDE_OBJECT_START NAME='X_STL'
G1 X141.143 Y103.357 F30000
G1 Z.2 F600
G1 E.8 F1800
M204 S500
;TYPE:Perimeter
;WIDTH:0.5
G1 F3000
G1 X141.143 Y141.643 E1.38235
G1 X103.857 Y141.643 E1.34625
G1 X103.857 Y103.357 E1.38235
G1 X141.083 Y103.357 E1.34408
M204 S10000
G1 X141.6 Y102.9 F30000
M204 S500
;TYPE:External perimeter
G1 F3000
G1 X141.6 Y142.1 E1.41536
G1 X103.4 Y142.1 E1.37925
G1 X103.4 Y102.9 E1.41536
G1 X141.54 Y102.9 E1.37708
M204 S10000
;WIPE_START
G1 F24000
G1 X141.6 Y102.9 E-.0228
G1 X141.6 Y104.84 E-.7372
;WIPE_END
G1 E-.04 F1800
G1 X139.996 Y103.574 Z.307 F11819.738
G1 Z.2 F600
G1 E.8 F1800
M204 S500
;TYPE:Solid infill
;WIDTH:0.502813
G1 F6000
G1 X140.72 Y104.298 E.0372
G1 X140.72 Y104.949 E.02365
G1 X139.551 Y103.78 E.06006
G1 X138.901 Y103.78 E.02361
G1 X140.72 Y105.599 E.09345
G1 X140.72 Y106.25 E.02365
G1 X138.25 Y103.78 E.1269
G1 X137.6 Y103.78 E.02361
G1 X140.72 Y106.9 E.16029
G1 X140.72 Y107.55 E.02361
G1 X136.95 Y103.78 E.19369
G1 X136.299 Y103.78 E.02365
G1 X140.72 Y108.201 E.22713
G1 X140.72 Y108.851 E.02361
G1 X135.649 Y103.78 E.26053
G1 X134.998 Y103.78 E.02365
G1 X140.72 Y109.502 E.29397
G1 X140.72 Y110.152 E.02361
G1 X134.348 Y103.78 E.32737
G1 X133.698 Y103.78 E.02361
G1 X140.72 Y110.802 E.36076
G1 X140.72 Y111.453 E.02365
G1 X133.047 Y103.78 E.39421
G1 X132.397 Y103.78 E.02361
G1 X140.72 Y112.103 E.4276
G1 X140.72 Y112.753 E.02361
G1 X131.747 Y103.78 E.461
G1 X131.096 Y103.78 E.02365
G1 X140.72 Y113.404 E.49444
G1 X140.72 Y114.054 E.02361
G1 X130.446 Y103.78 E.52784
G1 X129.795 Y103.78 E.02365
G1 X140.72 Y114.705 E.56128
G1 X140.72 Y115.355 E.02361
G1 X129.145 Y103.78 E.59468
G1 X128.495 Y103.78 E.02361
G1 X140.72 Y116.005 E.62807
G1 X140.72 Y116.656 E.02365
G1 X127.844 Y103.78 E.66152
G1 X127.194 Y103.78 E.02361
G1 X140.72 Y117.306 E.69491
G1 X140.72 Y117.957 E.02365
G1 X126.543 Y103.78 E.72836
G1 X125.893 Y103.78 E.02361
G1 X140.72 Y118.607 E.76175
G1 X140.72 Y119.257 E.02361
G1 X125.243 Y103.78 E.79514
G1 X124.592 Y103.78 E.02365
G1 X140.72 Y119.908 E.82859
G1 X140.72 Y120.558 E.02361
G1 X123.942 Y103.78 E.86198
G1 X123.291 Y103.78 E.02365
G1 X140.72 Y121.209 E.89543
G1 X140.72 Y121.859 E.02361
G1 X122.641 Y103.78 E.92882
G1 X121.991 Y103.78 E.02361
G1 X140.72 Y122.509 E.96222
G1 X140.72 Y123.16 E.02365
G1 X121.34 Y103.78 E.99566
G1 X120.69 Y103.78 E.02361
G1 X140.72 Y123.81 E1.02906
G1 X140.72 Y124.46 E.02361
G1 X120.04 Y103.78 E1.06245
G1 X119.389 Y103.78 E.02365
G1 X140.72 Y125.111 E1.0959
G1 X140.72 Y125.761 E.02361
G1 X118.739 Y103.78 E1.12929
G1 X118.088 Y103.78 E.02365
G1 X140.72 Y126.412 E1.16274
G1 X140.72 Y127.062 E.02361
G1 X117.438 Y103.78 E1.19613
G1 X116.788 Y103.78 E.02361
G1 X140.72 Y127.712 E1.22953
G1 X140.72 Y128.363 E.02365
G1 X116.137 Y103.78 E1.26297
G1 X115.487 Y103.78 E.02361
G1 X140.72 Y129.013 E1.29637
G1 X140.72 Y129.664 E.02365
G1 X114.836 Y103.78 E1.32981
G1 X114.186 Y103.78 E.02361
G1 X140.72 Y130.314 E1.36321
G1 X140.72 Y130.964 E.02361
G1 X113.536 Y103.78 E1.3966
G1 X112.885 Y103.78 E.02365
G1 X140.72 Y131.615 E1.43005
G1 X140.72 Y132.265 E.02361
G1 X112.235 Y103.78 E1.46344
G1 X111.585 Y103.78 E.02361
G1 X140.72 Y132.915 E1.49684
G1 X140.72 Y133.566 E.02365
G1 X110.934 Y103.78 E1.53028
G1 X110.284 Y103.78 E.02361
G1 X140.72 Y134.216 E1.56368
G1 X140.72 Y134.867 E.02365
G1 X109.633 Y103.78 E1.59712
G1 X108.983 Y103.78 E.02361
M73 P1 R59
G1 X140.72 Y135.517 E1.63052
G1 X140.72 Y136.167 E.02361
G1 X108.333 Y103.78 E1.66391
G1 X107.682 Y103.78 E.02365
G1 X140.72 Y136.818 E1.69736
G1 X140.72 Y137.468 E.02361
G1 X107.032 Y103.78 E1.73075
G1 X106.381 Y103.78 E.02365
G1 X140.72 Y138.119 E1.7642
G1 X140.72 Y138.769 E.02361
G1 X105.731 Y103.78 E1.79759
G1 X105.081 Y103.78 E.02361
G1 X140.72 Y139.419 E1.83099
G1 X140.72 Y140.07 E.02365
G1 X104.43 Y103.78 E1.86443
G1 X104.28 Y103.78 E.00545
G1 X104.28 Y104.28 E.01816
G1 X140.72 Y140.72 E1.87214
G1 X140.72 Y141.22 E.01816
G1 X140.57 Y141.22 E.00545
G1 X104.28 Y104.93 E1.86443
G1 X104.28 Y105.581 E.02365
G1 X139.919 Y141.22 E1.83099
G1 X139.269 Y141.22 E.02361
G1 X104.28 Y106.231 E1.79759
G1 X104.28 Y106.881 E.02361
G1 X138.619 Y141.22 E1.7642
G1 X137.968 Y141.22 E.02365
M73 P1 R58
G1 X104.28 Y107.532 E1.73075
G1 X104.28 Y108.182 E.02361
G1 X137.318 Y141.22 E1.69736
G1 X136.667 Y141.22 E.02365
G1 X104.28 Y108.833 E1.66391
G1 X104.28 Y109.483 E.02361
G1 X136.017 Y141.22 E1.63052
G1 X135.367 Y141.22 E.02361
G1 X104.28 Y110.133 E1.59712
G1 X104.28 Y110.784 E.02365
G1 X134.716 Y141.22 E1.56368
G1 X134.066 Y141.22 E.02361
G1 X104.28 Y111.434 E1.53028
G1 X104.28 Y112.085 E.02365
G1 X133.415 Y141.22 E1.49684
G1 X132.765 Y141.22 E.02361
G1 X104.28 Y112.735 E1.46344
G1 X104.28 Y113.385 E.02361
G1 X132.115 Y141.22 E1.43005
G1 X131.464 Y141.22 E.02365
G1 X104.28 Y114.036 E1.3966
G1 X104.28 Y114.686 E.02361
G1 X130.814 Y141.22 E1.36321
G1 X130.164 Y141.22 E.02361
G1 X104.28 Y115.336 E1.32981
G1 X104.28 Y115.987 E.02365
G1 X129.513 Y141.22 E1.29637
G1 X128.863 Y141.22 E.02361
G1 X104.28 Y116.637 E1.26297
G1 X104.28 Y117.288 E.02365
G1 X128.212 Y141.22 E1.22953
G1 X127.562 Y141.22 E.02361
G1 X104.28 Y117.938 E1.19613
G1 X104.28 Y118.588 E.02361
G1 X126.912 Y141.22 E1.16274
G1 X126.261 Y141.22 E.02365
G1 X104.28 Y119.239 E1.12929
G1 X104.28 Y119.889 E.02361
G1 X125.611 Y141.22 E1.0959
G1 X124.96 Y141.22 E.02365
G1 X104.28 Y120.54 E1.06245
G1 X104.28 Y121.19 E.02361
G1 X124.31 Y141.22 E1.02906
G1 X123.66 Y141.22 E.02361
G1 X104.28 Y121.84 E.99566
G1 X104.28 Y122.491 E.02365
G1 X123.009 Y141.22 E.96222
G1 X122.359 Y141.22 E.02361
G1 X104.28 Y123.141 E.92882
G1 X104.28 Y123.791 E.02361
G1 X121.709 Y141.22 E.89543
G1 X121.058 Y141.22 E.02365
G1 X104.28 Y124.442 E.86198
G1 X104.28 Y125.092 E.02361
G1 X120.408 Y141.22 E.82859
G1 X119.757 Y141.22 E.02365
G1 X104.28 Y125.743 E.79514
G1 X104.28 Y126.393 E.02361
G1 X119.107 Y141.22 E.76175
G1 X118.457 Y141.22 E.02361
G1 X104.28 Y127.043 E.72836
G1 X104.28 Y127.694 E.02365
G1 X117.806 Y141.22 E.69491
G1 X117.156 Y141.22 E.02361
G1 X104.28 Y128.344 E.66152
G1 X104.28 Y128.995 E.02365
G1 X116.505 Y141.22 E.62807
G1 X115.855 Y141.22 E.02361
G1 X104.28 Y129.645 E.59468
G1 X104.28 Y130.295 E.02361
G1 X115.205 Y141.22 E.56128
G1 X114.554 Y141.22 E.02365
G1 X104.28 Y130.946 E.52784
G1 X104.28 Y131.596 E.02361
G1 X113.904 Y141.22 E.49444
G1 X113.253 Y141.22 E.02365
G1 X104.28 Y132.247 E.461
G1 X104.28 Y132.897 E.02361
G1 X112.603 Y141.22 E.4276
G1 X111.953 Y141.22 E.02361
G1 X104.28 Y133.547 E.39421
G1 X104.28 Y134.198 E.02365
G1 X111.302 Y141.22 E.36076
G1 X110.652 Y141.22 E.02361
G1 X104.28 Y134.848 E.32737
G1 X104.28 Y135.498 E.02361
G1 X110.002 Y141.22 E.29397
G1 X109.351 Y141.22 E.02365
G1 X104.28 Y136.149 E.26053
G1 X104.28 Y136.799 E.02361
G1 X108.701 Y141.22 E.22713
G1 X108.05 Y141.22 E.02365
G1 X104.28 Y137.45 E.19369
G1 X104.28 Y138.1 E.02361
G1 X107.4 Y141.22 E.16029
G1 X106.75 Y141.22 E.02361
G1 X104.28 Y138.75 E.1269
G1 X104.28 Y139.401 E.02365
G1 X106.099 Y141.22 E.09345
G1 X105.449 Y141.22 E.02361
G1 X104.28 Y140.051 E.06006
G1 X104.28 Y140.702 E.02365
G1 X105.004 Y141.426 E.0372
M204 S10000
;LAYER_CHANGE
;Z:0.4
;HEIGHT:0.2
;TIMELAPSE_TAKE_FRAME
;WIPE_START
G1 F24000
G1 X104.28 Y140.702 E-.38908
G1 X104.28 Y140.051 E-.12073
G1 X104.51 Y140.281 E-.25019
;WIPE_END
G1 E-.04 F1800
G1 X104.51 Y140.281 Z.2 F30000
G1 X109.886 Y134.863 Z.6 F11819.71
G1 X141.398 Y103.102 Z.6 F30000
G92 E0
M104 S250 ; set temperature
G1 Z.4 F600
G1 E.8 F1800
M204 S5000
;TYPE:Perimeter
;WIDTH:0.45
G1 F8843.478
G1 X141.398 Y141.898 E1.24754
G1 X103.602 Y141.898 E1.21538
G1 X103.602 Y103.102 E1.24754
G1 X141.338 Y103.102 E1.21345
M204 S10000
G1 X141.79 Y102.71 F30000
M204 S3000
;TYPE:External perimeter
;WIDTH:0.42
G1 F9547.055
G1 X141.79 Y103.34 E.01877
G1 X141.79 Y141.66 E1.14142
G1 X141.79 Y142.29 E.01877
G1 X141.16 Y142.29 E.01877
G1 X103.84 Y142.29 E1.11164
G1 X103.21 Y142.29 E.01877
G1 X103.21 Y141.66 E.01877
G1 X103.21 Y103.34 E1.14142
G1 X103.21 Y102.71 E.01877
G1 X103.84 Y102.71 E.01877
G1 X141.16 Y102.71 E1.11164
G1 X141.73 Y102.71 E.01698
M204 S10000
;WIPE_START
G1 F24000
G1 X141.79 Y102.71 E-.0228
G1 X141.79 Y103.34 E-.23222
G1 X141.79 Y104.65 E-.50498
;WIPE_END
G1 E-.04 F1800
G1 X141.667 Y112.281 Z.8 F11819.71
G1 X141.204 Y140.94 F30000
G1 Z.4 F600
G1 E.8 F1800
;TYPE:Solid infill
;WIDTH:0.420826
G1 F9526.178
G1 X140.609 Y141.534 E.0251
G1 X140.075 Y141.534 E.01594
G1 X141.034 Y140.575 E.04049
G1 X141.034 Y140.041 E.01594
G1 X139.541 Y141.534 E.06303
G1 X139.006 Y141.534 E.01597
G1 X141.034 Y139.506 E.08562
G1 X141.034 Y138.972 E.01594
G1 X138.472 Y141.534 E.10816
G1 X137.937 Y141.534 E.01597
G1 X141.034 Y138.437 E.13075
G1 X141.034 Y137.903 E.01594
G1 X137.403 Y141.534 E.15329
G1 X136.868 Y141.534 E.01597
G1 X141.034 Y137.368 E.17588
G1 X141.034 Y136.834 E.01594
G1 X136.334 Y141.534 E.19842
G1 X135.8 Y141.534 E.01594
G1 X141.034 Y136.3 E.22096
G1 X141.034 Y135.765 E.01597
G1 X135.265 Y141.534 E.24355
G1 X134.731 Y141.534 E.01594
G1 X141.034 Y135.231 E.26609
G1 X141.034 Y134.696 E.01597
G1 X134.196 Y141.534 E.28868
G1 X133.662 Y141.534 E.01594
G1 X141.034 Y134.162 E.31122
G1 X141.034 Y133.627 E.01597
G1 X133.127 Y141.534 E.33381
G1 X132.593 Y141.534 E.01594
G1 X141.034 Y133.093 E.35635
G1 X141.034 Y132.558 E.01597
M73 P2 R58
G1 X132.058 Y141.534 E.37894
G1 X131.524 Y141.534 E.01594
G1 X141.034 Y132.024 E.40148
G1 X141.034 Y131.49 E.01594
G1 X130.99 Y141.534 E.42403
G1 X130.455 Y141.534 E.01597
G1 X141.034 Y130.955 E.44661
G1 X141.034 Y130.421 E.01594
G1 X129.921 Y141.534 E.46916
G1 X129.386 Y141.534 E.01597
G1 X141.034 Y129.886 E.49174
G1 X141.034 Y129.352 E.01594
G1 X128.852 Y141.534 E.51429
G1 X128.317 Y141.534 E.01597
G1 X141.034 Y128.817 E.53687
G1 X141.034 Y128.283 E.01594
G1 X127.783 Y141.534 E.55942
G1 X127.248 Y141.534 E.01597
G1 X141.034 Y127.748 E.582
G1 X141.034 Y127.214 E.01594
G1 X126.714 Y141.534 E.60455
G1 X126.18 Y141.534 E.01594
G1 X141.034 Y126.68 E.62709
G1 X141.034 Y126.145 E.01597
G1 X125.645 Y141.534 E.64968
G1 X125.111 Y141.534 E.01594
G1 X141.034 Y125.611 E.67222
G1 X141.034 Y125.076 E.01597
G1 X124.576 Y141.534 E.69481
G1 X124.042 Y141.534 E.01594
G1 X141.034 Y124.542 E.71735
G1 X141.034 Y124.007 E.01597
G1 X123.507 Y141.534 E.73994
G1 X122.973 Y141.534 E.01594
G1 X141.034 Y123.473 E.76248
G1 X141.034 Y122.939 E.01594
G1 X122.439 Y141.534 E.78502
G1 X121.904 Y141.534 E.01597
G1 X141.034 Y122.404 E.80761
G1 X141.034 Y121.87 E.01594
G1 X121.37 Y141.534 E.83015
G1 X120.835 Y141.534 E.01597
G1 X141.034 Y121.335 E.85274
G1 X141.034 Y120.801 E.01594
G1 X120.301 Y141.534 E.87528
G1 X119.766 Y141.534 E.01597
G1 X141.034 Y120.266 E.89787
G1 X141.034 Y119.732 E.01594
G1 X119.232 Y141.534 E.92041
G1 X118.697 Y141.534 E.01597
G1 X141.034 Y119.197 E.943
G1 X141.034 Y118.663 E.01594
G1 X118.163 Y141.534 E.96554
G1 X117.629 Y141.534 E.01594
G1 X141.034 Y118.129 E.98809
G1 X141.034 Y117.594 E.01597
G1 X117.094 Y141.534 E1.01067
G1 X116.56 Y141.534 E.01594
G1 X141.034 Y117.06 E1.03322
G1 X141.034 Y116.525 E.01597
G1 X116.025 Y141.534 E1.0558
G1 X115.491 Y141.534 E.01594
G1 X141.034 Y115.991 E1.07835
G1 X141.034 Y115.456 E.01597
G1 X114.956 Y141.534 E1.10093
G1 X114.422 Y141.534 E.01594
G1 X141.034 Y114.922 E1.12348
G1 X141.034 Y114.387 E.01597
G1 X113.887 Y141.534 E1.14606
G1 X113.353 Y141.534 E.01594
G1 X141.034 Y113.853 E1.16861
G1 X141.034 Y113.319 E.01594
G1 X112.819 Y141.534 E1.19115
G1 X112.284 Y141.534 E.01597
G1 X141.034 Y112.784 E1.21374
G1 X141.034 Y112.25 E.01594
G1 X111.75 Y141.534 E1.23628
G1 X111.215 Y141.534 E.01597
G1 X141.034 Y111.715 E1.25887
G1 X141.034 Y111.181 E.01594
G1 X110.681 Y141.534 E1.28141
G1 X110.146 Y141.534 E.01597
G1 X141.034 Y110.646 E1.304
G1 X141.034 Y110.112 E.01594
G1 X109.612 Y141.534 E1.32654
G1 X109.078 Y141.534 E.01594
G1 X141.034 Y109.578 E1.34908
G1 X141.034 Y109.043 E.01597
G1 X108.543 Y141.534 E1.37167
G1 X108.009 Y141.534 E.01594
G1 X141.034 Y108.509 E1.39421
G1 X141.034 Y107.974 E.01597
G1 X107.474 Y141.534 E1.4168
G1 X106.94 Y141.534 E.01594
G1 X141.034 Y107.44 E1.43934
G1 X141.034 Y106.905 E.01597
G1 X106.405 Y141.534 E1.46193
G1 X105.871 Y141.534 E.01594
G1 X141.034 Y106.371 E1.48447
G1 X141.034 Y105.836 E.01597
G1 X105.336 Y141.534 E1.50706
G1 X104.802 Y141.534 E.01594
G1 X141.034 Y105.302 E1.5296
G1 X141.034 Y104.768 E.01594
G1 X104.268 Y141.534 E1.55215
G1 X103.966 Y141.534 E.00902
G1 X103.966 Y141.301 E.00696
G1 X141.034 Y104.233 E1.5649
G1 X141.034 Y103.699 E.01594
G1 X103.966 Y140.767 E1.5649
G1 X103.966 Y140.232 E.01597
G1 X140.733 Y103.466 E1.55217
G1 X140.198 Y103.466 E.01597
G1 X103.966 Y139.698 E1.5296
G1 X103.966 Y139.164 E.01594
G1 X139.664 Y103.466 E1.50706
G1 X139.129 Y103.466 E.01597
G1 X103.966 Y138.629 E1.48447
G1 X103.966 Y138.095 E.01594
G1 X138.595 Y103.466 E1.46193
G1 X138.06 Y103.466 E.01597
G1 X103.966 Y137.56 E1.43934
G1 X103.966 Y137.026 E.01594
G1 X137.526 Y103.466 E1.4168
G1 X136.991 Y103.466 E.01597
G1 X103.966 Y136.491 E1.39421
G1 X103.966 Y135.957 E.01594
G1 X136.457 Y103.466 E1.37167
G1 X135.923 Y103.466 E.01594
G1 X103.966 Y135.423 E1.34913
G1 X103.966 Y134.888 E.01597
G1 X135.388 Y103.466 E1.32654
G1 X134.854 Y103.466 E.01594
G1 X103.966 Y134.354 E1.304
G1 X103.966 Y133.819 E.01597
G1 X134.319 Y103.466 E1.28141
G1 X133.785 Y103.466 E.01594
G1 X103.966 Y133.285 E1.25887
G1 X103.966 Y132.75 E.01597
G1 X133.25 Y103.466 E1.23628
G1 X132.716 Y103.466 E.01594
G1 X103.966 Y132.216 E1.21374
G1 X103.966 Y131.681 E.01597
G1 X132.181 Y103.466 E1.19115
G1 X131.647 Y103.466 E.01594
G1 X103.966 Y131.147 E1.16861
G1 X103.966 Y130.613 E.01594
G1 X131.113 Y103.466 E1.14606
G1 X130.578 Y103.466 E.01597
G1 X103.966 Y130.078 E1.12348
G1 X103.966 Y129.544 E.01594
G1 X130.044 Y103.466 E1.10093
G1 X129.509 Y103.466 E.01597
G1 X103.966 Y129.009 E1.07835
G1 X103.966 Y128.475 E.01594
G1 X128.975 Y103.466 E1.0558
G1 X128.44 Y103.466 E.01597
G1 X103.966 Y127.94 E1.03322
G1 X103.966 Y127.406 E.01594
G1 X127.906 Y103.466 E1.01067
G1 X127.372 Y103.466 E.01594
G1 X103.966 Y126.871 E.98811
G1 X103.966 Y126.337 E.01594
G1 X126.837 Y103.466 E.96554
G1 X126.303 Y103.466 E.01594
G1 X103.966 Y125.803 E.943
G1 X103.966 Y125.268 E.01597
G1 X125.768 Y103.466 E.92041
G1 X125.234 Y103.466 E.01594
G1 X103.966 Y124.734 E.89787
G1 X103.966 Y124.199 E.01597
G1 X124.699 Y103.466 E.87528
G1 X124.165 Y103.466 E.01594
G1 X103.966 Y123.665 E.85274
G1 X103.966 Y123.13 E.01597
G1 X123.63 Y103.466 E.83015
G1 X123.096 Y103.466 E.01594
G1 X103.966 Y122.596 E.80761
G1 X103.966 Y122.062 E.01594
G1 X122.562 Y103.466 E.78507
G1 X122.027 Y103.466 E.01597
G1 X103.966 Y121.527 E.76248
G1 X103.966 Y120.993 E.01594
G1 X121.493 Y103.466 E.73994
G1 X120.958 Y103.466 E.01597
G1 X103.966 Y120.458 E.71735
G1 X103.966 Y119.924 E.01594
G1 X120.424 Y103.466 E.69481
G1 X119.889 Y103.466 E.01597
G1 X103.966 Y119.389 E.67222
G1 X103.966 Y118.855 E.01594
G1 X119.355 Y103.466 E.64968
G1 X118.82 Y103.466 E.01597
G1 X103.966 Y118.32 E.62709
G1 X103.966 Y117.786 E.01594
G1 X118.286 Y103.466 E.60455
G1 X117.752 Y103.466 E.01594
G1 X103.966 Y117.252 E.582
G1 X103.966 Y116.717 E.01597
G1 X117.217 Y103.466 E.55942
G1 X116.683 Y103.466 E.01594
